assets/img/icon_programming.svg

<svg width="81" height="81" viewBox="0 0 81 81" fill="none" xmlns="http://www.w3.org/2000/svg">
<path d="M74.6718 2.53125H31.6406C30.6345 2.53425 29.6705 2.93525 28.9591 3.64665C28.2477 4.35805 27.8467 5.32206 27.8437 6.32812V35.4375H8.85932C7.85325 35.4405 6.88924 35.8415 6.17784 36.5529C5.46644 37.2643 5.06544 38.2283 5.06244 39.2344V70.875H3.94869C3.76175 70.8762 3.5774 70.9189 3.4089 70.9998C3.2404 71.0808 3.09193 71.1981 2.97416 71.3433C2.85433 71.4898 2.76929 71.6616 2.72544 71.8458C2.6816 72.0299 2.68009 72.2216 2.72103 72.4064L3.82213 77.4689C3.88303 77.7524 4.03945 78.0065 4.26523 78.1885C4.49101 78.3705 4.77244 78.4694 5.06244 78.4688H65.8124C66.1024 78.4694 66.3839 78.3705 66.6096 78.1885C66.8354 78.0065 66.9919 77.7524 67.0528 77.4689L68.1538 72.4064C68.1948 72.2216 68.1933 72.0299 68.1494 71.8458C68.1056 71.6616 68.0206 71.4898 67.9007 71.3433C67.783 71.1981 67.6345 71.0808 67.466 70.9998C67.2975 70.9189 67.1131 70.8762 66.9262 70.875H65.8124V48.0938H74.6718C75.6779 48.0907 76.6419 47.6898 77.3533 46.9784C78.0647 46.267 78.4657 45.3029 78.4687 44.2969V6.32812C78.4657 5.32206 78.0647 4.35805 77.3533 3.64665C76.6419 2.93525 75.6779 2.53425 74.6718 2.53125V2.53125ZM7.59369 39.2344C7.59369 38.8987 7.72703 38.5768 7.96438 38.3394C8.20173 38.1021 8.52365 37.9688 8.85932 37.9688H27.8437V44.2969C27.8467 45.3029 28.2477 46.267 28.9591 46.9784C29.6705 47.6898 30.6345 48.0907 31.6406 48.0938H63.2812V70.875H39.2343C38.8987 70.875 38.5767 71.0083 38.3394 71.2457C38.102 71.483 37.9687 71.805 37.9687 72.1406H32.9062C32.9062 71.805 32.7728 71.483 32.5355 71.2457C32.2981 71.0083 31.9762 70.875 31.6406 70.875H7.59369V39.2344ZM64.7999 75.9375H6.07494L5.53072 73.4062H30.3749C30.3749 73.7419 30.5083 74.0638 30.7456 74.3012C30.983 74.5385 31.3049 74.6719 31.6406 74.6719H39.2343C39.57 74.6719 39.8919 74.5385 40.1292 74.3012C40.3666 74.0638 40.4999 73.7419 40.4999 73.4062H65.3442L64.7999 75.9375ZM75.9374 44.2969C75.9374 44.6325 75.8041 44.9545 75.5667 45.1918C75.3294 45.4292 75.0075 45.5625 74.6718 45.5625H31.6406C31.3049 45.5625 30.983 45.4292 30.7456 45.1918C30.5083 44.9545 30.3749 44.6325 30.3749 44.2969V15.1875H75.9374V44.2969ZM75.9374 12.6562H30.3749V6.32812C30.3749 5.99246 30.5083 5.67054 30.7456 5.43319C30.983 5.19584 31.3049 5.0625 31.6406 5.0625H74.6718C75.0075 5.0625 75.3294 5.19584 75.5667 5.43319C75.8041 5.67054 75.9374 5.99246 75.9374 6.32812V12.6562Z" fill="url(#paint0_linear)"/>
<path d="M70.875 7.59375H73.4062V10.125H70.875V7.59375Z" fill="url(#paint1_linear)"/>
<path d="M65.8125 7.59375H68.3438V10.125H65.8125V7.59375Z" fill="url(#paint2_linear)"/>
<path d="M60.75 7.59375H63.2812V10.125H60.75V7.59375Z" fill="url(#paint3_linear)"/>
<path d="M45.9333 21.8865L38.3396 29.4802C38.1023 29.7176 37.969 30.0394 37.969 30.375C37.969 30.7106 38.1023 31.0325 38.3396 31.2698L45.9333 38.8636L47.7229 37.074L41.0239 30.375L47.7229 23.6761L45.9333 21.8865Z" fill="url(#paint4_linear)"/>
<path d="M60.3792 21.8865L58.5896 23.6761L65.2886 30.375L58.5896 37.074L60.3792 38.8636L67.9729 31.2698C68.2102 31.0325 68.3435 30.7106 68.3435 30.375C68.3435 30.0394 68.2102 29.7176 67.9729 29.4802L60.3792 21.8865Z" fill="url(#paint5_linear)"/>
<path d="M48.1521 41.3394L55.7405 18.5501L58.1427 19.35L50.5543 42.1392L48.1521 41.3394Z" fill="url(#paint6_linear)"/>
<path d="M21.5156 60.75H32.9063V63.2812H21.5156V60.75Z" fill="url(#paint7_linear)"/>
<path d="M10.125 60.75H18.9844V63.2812H10.125V60.75Z" fill="url(#paint8_linear)"/>
<path d="M10.125 65.8125H27.8438V68.3438H10.125V65.8125Z" fill="url(#paint9_linear)"/>
<path d="M48.0938 60.75H60.75V63.2812H48.0938V60.75Z" fill="url(#paint10_linear)"/>
<path d="M35.4375 60.75H45.5625V63.2812H35.4375V60.75Z" fill="url(#paint11_linear)"/>
<path d="M30.375 65.8125H60.75V68.3438H30.375V65.8125Z" fill="url(#paint12_linear)"/>
<path d="M10.125 45.5625H25.3125V48.0938H10.125V45.5625Z" fill="url(#paint13_linear)"/>
<path d="M10.125 40.5H25.3125V43.0312H10.125V40.5Z" fill="url(#paint14_linear)"/>
<defs>
<linearGradient id="paint0_linear" x1="1.3653" y1="40.5" x2="78.4687" y2="40.5" gradientUnits="userSpaceOnUse">
<stop stop-color="#3494E6"/>
<stop offset="1" stop-color="#EC6EAD"/>
</linearGradient>
<linearGradient id="paint1_linear" x1="70.8307" y1="8.85937" x2="73.4063" y2="8.85937" gradientUnits="userSpaceOnUse">
<stop stop-color="#3494E6"/>
<stop offset="1" stop-color="#EC6EAD"/>
</linearGradient>
<linearGradient id="paint2_linear" x1="65.7682" y1="8.85937" x2="68.3438" y2="8.85937" gradientUnits="userSpaceOnUse">
<stop stop-color="#3494E6"/>
<stop offset="1" stop-color="#EC6EAD"/>
</linearGradient>
<linearGradient id="paint3_linear" x1="60.7057" y1="8.85937" x2="63.2813" y2="8.85937" gradientUnits="userSpaceOnUse">
<stop stop-color="#3494E6"/>
<stop offset="1" stop-color="#EC6EAD"/>
</linearGradient>
<linearGradient id="paint4_linear" x1="37.7983" y1="30.375" x2="47.7229" y2="30.375" gradientUnits="userSpaceOnUse">
<stop stop-color="#3494E6"/>
<stop offset="1" stop-color="#EC6EAD"/>
</linearGradient>
<linearGradient id="paint5_linear" x1="58.4189" y1="30.375" x2="68.3435" y2="30.375" gradientUnits="userSpaceOnUse">
<stop stop-color="#3494E6"/>
<stop offset="1" stop-color="#EC6EAD"/>
</linearGradient>
<linearGradient id="paint6_linear" x1="49.2204" y1="42.1381" x2="56.9416" y2="18.95" gradientUnits="userSpaceOnUse">
<stop stop-color="#3494E6"/>
<stop offset="1" stop-color="#EC6EAD"/>
</linearGradient>
<linearGradient id="paint7_linear" x1="21.3163" y1="62.0156" x2="32.9063" y2="62.0156" gradientUnits="userSpaceOnUse">
<stop stop-color="#3494E6"/>
<stop offset="1" stop-color="#EC6EAD"/>
</linearGradient>
<linearGradient id="paint8_linear" x1="9.96996" y1="62.0156" x2="18.9844" y2="62.0156" gradientUnits="userSpaceOnUse">
<stop stop-color="#3494E6"/>
<stop offset="1" stop-color="#EC6EAD"/>
</linearGradient>
<linearGradient id="paint9_linear" x1="9.81492" y1="67.0781" x2="27.8438" y2="67.0781" gradientUnits="userSpaceOnUse">
<stop stop-color="#3494E6"/>
<stop offset="1" stop-color="#EC6EAD"/>
</linearGradient>
<linearGradient id="paint10_linear" x1="47.8723" y1="62.0156" x2="60.75" y2="62.0156" gradientUnits="userSpaceOnUse">
<stop stop-color="#3494E6"/>
<stop offset="1" stop-color="#EC6EAD"/>
</linearGradient>
<linearGradient id="paint11_linear" x1="35.2603" y1="62.0156" x2="45.5625" y2="62.0156" gradientUnits="userSpaceOnUse">
<stop stop-color="#3494E6"/>
<stop offset="1" stop-color="#EC6EAD"/>
</linearGradient>
<linearGradient id="paint12_linear" x1="29.8434" y1="67.0781" x2="60.75" y2="67.0781" gradientUnits="userSpaceOnUse">
<stop stop-color="#3494E6"/>
<stop offset="1" stop-color="#EC6EAD"/>
</linearGradient>
<linearGradient id="paint13_linear" x1="9.85922" y1="46.8281" x2="25.3125" y2="46.8281" gradientUnits="userSpaceOnUse">
<stop stop-color="#3494E6"/>
<stop offset="1" stop-color="#EC6EAD"/>
</linearGradient>
<linearGradient id="paint14_linear" x1="9.85922" y1="41.7656" x2="25.3125" y2="41.7656" gradientUnits="userSpaceOnUse">
<stop stop-color="#3494E6"/>
<stop offset="1" stop-color="#EC6EAD"/>
</linearGradient>
</defs>
</svg>

<svg width="81" height="81" fill="none" xmlns="http://www.w3.org/2000/svg"><path d="M74.672 2.531H31.64a3.808 3.808 0 00-3.797 3.797v29.11H8.859a3.808 3.808 0 00-3.797 3.796v31.641H3.95a1.266 1.266 0 00-1.228 1.531l1.101 5.063a1.266 1.266 0 001.24 1h60.75a1.266 1.266 0 001.24-1l1.102-5.063a1.25 1.25 0 00-.253-1.063 1.265 1.265 0 00-.975-.468h-1.114V48.094h8.86a3.809 3.809 0 003.797-3.797V6.328a3.808 3.808 0 00-3.797-3.797zM7.594 39.234a1.266 1.266 0 011.265-1.265h18.985v6.328a3.808 3.808 0 003.797 3.797h31.64v22.781H39.234a1.265 1.265 0 00-1.265 1.266h-5.063a1.266 1.266 0 00-1.265-1.266H7.594v-31.64zM64.8 75.937H6.075l-.544-2.53h24.844a1.266 1.266 0 001.266 1.265h7.593a1.266 1.266 0 001.266-1.266h24.844l-.544 2.531zm11.137-31.64a1.265 1.265 0 01-1.265 1.266H31.64a1.266 1.266 0 01-1.266-1.266v-29.11h45.562v29.11zm0-31.64H30.375V6.327a1.266 1.266 0 011.266-1.266h43.03a1.265 1.265 0 011.266 1.266v6.328z" fill="url(#paint0_linear)"/><path d="M70.875 7.594h2.531v2.531h-2.531V7.594z" fill="url(#paint1_linear)"/><path d="M65.813 7.594h2.53v2.531h-2.53V7.594z" fill="url(#paint2_linear)"/><path d="M60.75 7.594h2.531v2.531H60.75V7.594z" fill="url(#paint3_linear)"/><path d="M45.933 21.887L38.34 29.48a1.266 1.266 0 000 1.79l7.593 7.594 1.79-1.79-6.7-6.699 6.7-6.699-1.79-1.79z" fill="url(#paint4_linear)"/><path d="M60.38 21.887l-1.79 1.79 6.699 6.698-6.7 6.699 1.79 1.79 7.594-7.594a1.265 1.265 0 000-1.79l-7.594-7.593z" fill="url(#paint5_linear)"/><path d="M48.152 41.34l7.588-22.79 2.403.8-7.589 22.79-2.402-.8z" fill="url(#paint6_linear)"/><path d="M21.516 60.75h11.39v2.531h-11.39V60.75z" fill="url(#paint7_linear)"/><path d="M10.125 60.75h8.86v2.531h-8.86V60.75z" fill="url(#paint8_linear)"/><path d="M10.125 65.813h17.719v2.53H10.125v-2.53z" fill="url(#paint9_linear)"/><path d="M48.094 60.75H60.75v2.531H48.094V60.75z" fill="url(#paint10_linear)"/><path d="M35.438 60.75h10.124v2.531H35.438V60.75z" fill="url(#paint11_linear)"/><path d="M30.375 65.813H60.75v2.53H30.375v-2.53z" fill="url(#paint12_linear)"/><path d="M10.125 45.563h15.188v2.53H10.124v-2.53z" fill="url(#paint13_linear)"/><path d="M10.125 40.5h15.188v2.531H10.124V40.5z" fill="url(#paint14_linear)"/><defs><linearGradient id="paint0_linear" x1="1.365" y1="40.5" x2="78.469" y2="40.5" gradientUnits="userSpaceOnUse"><stop stop-color="#3494E6"/><stop offset="1" stop-color="#EC6EAD"/></linearGradient><linearGradient id="paint1_linear" x1="70.831" y1="8.859" x2="73.406" y2="8.859" gradientUnits="userSpaceOnUse"><stop stop-color="#3494E6"/><stop offset="1" stop-color="#EC6EAD"/></linearGradient><linearGradient id="paint2_linear" x1="65.768" y1="8.859" x2="68.344" y2="8.859" gradientUnits="userSpaceOnUse"><stop stop-color="#3494E6"/><stop offset="1" stop-color="#EC6EAD"/></linearGradient><linearGradient id="paint3_linear" x1="60.706" y1="8.859" x2="63.281" y2="8.859" gradientUnits="userSpaceOnUse"><stop stop-color="#3494E6"/><stop offset="1" stop-color="#EC6EAD"/></linearGradient><linearGradient id="paint4_linear" x1="37.798" y1="30.375" x2="47.723" y2="30.375" gradientUnits="userSpaceOnUse"><stop stop-color="#3494E6"/><stop offset="1" stop-color="#EC6EAD"/></linearGradient><linearGradient id="paint5_linear" x1="58.419" y1="30.375" x2="68.344" y2="30.375" gradientUnits="userSpaceOnUse"><stop stop-color="#3494E6"/><stop offset="1" stop-color="#EC6EAD"/></linearGradient><linearGradient id="paint6_linear" x1="49.22" y1="42.138" x2="56.942" y2="18.95" gradientUnits="userSpaceOnUse"><stop stop-color="#3494E6"/><stop offset="1" stop-color="#EC6EAD"/></linearGradient><linearGradient id="paint7_linear" x1="21.316" y1="62.016" x2="32.906" y2="62.016" gradientUnits="userSpaceOnUse"><stop stop-color="#3494E6"/><stop offset="1" stop-color="#EC6EAD"/></linearGradient><linearGradient id="paint8_linear" x1="9.97" y1="62.016" x2="18.984" y2="62.016" gradientUnits="userSpaceOnUse"><stop stop-color="#3494E6"/><stop offset="1" stop-color="#EC6EAD"/></linearGradient><linearGradient id="paint9_linear" x1="9.815" y1="67.078" x2="27.844" y2="67.078" gradientUnits="userSpaceOnUse"><stop stop-color="#3494E6"/><stop offset="1" stop-color="#EC6EAD"/></linearGradient><linearGradient id="paint10_linear" x1="47.872" y1="62.016" x2="60.75" y2="62.016" gradientUnits="userSpaceOnUse"><stop stop-color="#3494E6"/><stop offset="1" stop-color="#EC6EAD"/></linearGradient><linearGradient id="paint11_linear" x1="35.26" y1="62.016" x2="45.563" y2="62.016" gradientUnits="userSpaceOnUse"><stop stop-color="#3494E6"/><stop offset="1" stop-color="#EC6EAD"/></linearGradient><linearGradient id="paint12_linear" x1="29.843" y1="67.078" x2="60.75" y2="67.078" gradientUnits="userSpaceOnUse"><stop stop-color="#3494E6"/><stop offset="1" stop-color="#EC6EAD"/></linearGradient><linearGradient id="paint13_linear" x1="9.859" y1="46.828" x2="25.313" y2="46.828" gradientUnits="userSpaceOnUse"><stop stop-color="#3494E6"/><stop offset="1" stop-color="#EC6EAD"/></linearGradient><linearGradient id="paint14_linear" x1="9.859" y1="41.766" x2="25.313" y2="41.766" gradientUnits="userSpaceOnUse"><stop stop-color="#3494E6"/><stop offset="1" stop-color="#EC6EAD"/></linearGradient></defs></svg>
